src/assets/images/icons/behance.svg

<?xml version="1.0" encoding="UTF-8"?>
<svg width="22px" height="22px" viewBox="0 0 22 22" version="1.1" xmlns="http://www.w3.org/2000/svg" xmlns:xlink="http://www.w3.org/1999/xlink">
    <!-- Generator: Sketch 49.1 (51147) - http://www.bohemiancoding.com/sketch -->
    <title>behance</title>
    <desc>Created with Sketch.</desc>
    <defs></defs>
    <g id="Page-1" stroke="none" stroke-width="1" fill="none" fill-rule="evenodd">
        <g id="Homepage" transform="translate(-39.000000, -2214.000000)">
            <g id="Behance" transform="translate(40.000000, 2210.000000)">
                <g id="behance" transform="translate(0.000000, 5.000000)">
                    <circle id="Path" stroke="#4A4A4A" cx="10" cy="10" r="10"></circle>
                    <path d="M8.88757321,9.5739645 C8.88757321,9.5739645 9.07889307,9.50098632 9.46153884,9.35502996 C9.8441831,9.20907209 10.035503,8.78895792 10.035503,8.0946738 C10.035503,7.39250215 9.83037728,6.86785212 9.42011834,6.52071006 C9.00985941,6.173568 8.50493349,6 7.90532544,6 L4,6 L4,13.8343195 L7.90532544,13.8343195 C7.90532544,13.8343195 8.02958391,13.82643 8.27810689,13.8106509 C8.52662836,13.7948717 8.80078769,13.7159771 9.10059247,13.5739645 C9.40039574,13.4319519 9.67455508,13.2051297 9.92307654,12.893491 C10.1715995,12.5818526 10.295858,12.126236 10.295858,11.526628 C10.295858,11.526628 10.2938857,11.4240644 10.2899412,11.2189342 C10.2859967,11.0138054 10.2426039,10.7909279 10.1597629,10.5502955 C10.0769219,10.3096631 9.93885766,10.0867855 9.74556251,9.8816568 C9.55226736,9.67652809 9.26627446,9.5739645 8.88757321,9.5739645 Z M5.72781065,7.3964497 L7.90532544,7.3964497 C7.90532544,7.3964497 7.9940817,7.42997964 8.17159725,7.49704104 C8.3491128,7.56410244 8.43787058,7.80275957 8.43787058,8.21301851 C8.43787058,8.61538689 8.37080918,8.87179437 8.23668639,8.98224852 C8.1025636,9.09270267 7.9487182,9.14792899 7.77514869,9.14792899 L5.72781065,9.14792899 L5.72781065,7.3964497 Z M7.79881581,12.4378698 L5.72781065,12.4378698 L5.72781065,10.3550296 L7.90532544,10.3550296 C7.90532544,10.3550296 8.03747446,10.3984223 8.30177553,10.4852079 C8.56607659,10.5719919 8.69822409,10.8836272 8.69822409,11.4201183 C8.69822409,11.8856036 8.58777297,12.1715965 8.36686315,12.2781061 C8.14595484,12.3846158 7.95660876,12.4378698 7.79881581,12.4378698 Z M13.4792892,7.99999924 C12.7613379,7.99999924 12.2051302,8.1558169 11.8106509,8.46745524 C11.4161716,8.77909359 11.1301787,9.12228658 10.9526631,9.4970418 C10.7751476,9.87179702 10.6706117,10.2169608 10.6390525,10.5325451 C10.6074948,10.848128 10.5917152,11.0059179 10.5917152,11.0059179 C10.5917152,11.0059179 10.5976335,11.1617341 10.6094671,11.4733724 C10.6213022,11.7850107 10.7120307,12.1282037 10.8816572,12.5029587 C11.0512822,12.8777139 11.3333321,13.2209058 11.7278099,13.5325443 C12.1222892,13.8441829 12.7061101,14 13.4792892,14 C13.4792892,14 13.6134105,13.9960553 13.8816576,13.9881657 C14.1499031,13.9802761 14.4457573,13.9171604 14.7692308,13.7988166 C15.0927042,13.6804728 15.3865861,13.477319 15.6508872,13.1893492 C15.9151883,12.9013792 16.0473373,12.4773211 16.0473373,11.9171598 L14.7337286,11.9171598 C14.7337286,11.9171598 14.6883636,12.0571978 14.5976335,12.3372785 C14.5069035,12.6173584 14.1499047,12.7573964 13.5266265,12.7573964 C13.5266265,12.7573964 13.3057227,12.712032 12.8639046,12.6213019 C12.422088,12.5305715 12.2011827,12.1222915 12.2011827,11.3964497 L16.0946746,11.3964497 C16.0946746,11.3964497 16.1005913,11.2189372 16.1124264,10.8639061 C16.12426,10.5088735 16.0631169,10.1183447 15.9289941,9.69230769 C15.7948713,9.26627067 15.5443806,8.87771418 15.1775144,8.5266276 C14.8106498,8.17554102 14.2445792,7.99999924 13.4792892,7.99999924 Z M14.6627211,10.3550296 L12.1893491,10.3550296 C12.1893491,10.3550296 12.2642996,10.1538484 12.4142019,9.75147853 C12.5641028,9.34911015 12.9309629,9.14792899 13.5147929,9.14792899 C14.0907323,9.14792899 14.4260347,9.34911015 14.5207093,9.75147853 C14.6153854,10.1538484 14.6627211,10.3550296 14.6627211,10.3550296 Z M14.970415,6.46153922 L11.8698217,6.46153922 L11.8698217,7.43195191 L14.970415,7.43195191 L14.970415,6.46153922 Z" id="Page-1" fill="#4A4A4A"></path>
                </g>
            </g>
        </g>
    </g>
</svg>

<svg width="22" height="22" xmlns="http://www.w3.org/2000/svg"><g transform="translate(1 1)" fill="none" fill-rule="evenodd"><circle stroke="#4A4A4A" cx="10" cy="10" r="10"/><path d="M8.888 9.574l.574-.219c.382-.146.574-.566.574-1.26 0-.702-.206-1.227-.616-1.574C9.01 6.174 8.505 6 7.905 6H4v7.834h3.905l.373-.023c.249-.016.523-.095.823-.237.3-.142.574-.369.822-.68.249-.312.373-.768.373-1.367l-.006-.308a2.196 2.196 0 00-.13-.669 1.851 1.851 0 00-.414-.668c-.194-.205-.48-.308-.858-.308zm-3.16-2.178h2.177l.267.101c.177.067.266.306.266.716 0 .402-.067.659-.201.77a.705.705 0 01-.462.165H5.728V7.396zm2.07 5.042h-2.07v-2.083h2.177l.397.13c.264.087.396.399.396.935 0 .466-.11.752-.331.858-.221.107-.41.16-.568.16zM13.48 8c-.718 0-1.274.156-1.668.467-.395.312-.68.655-.858 1.03-.178.375-.282.72-.314 1.036l-.047.473.017.467c.012.312.103.655.273 1.03.17.375.451.718.846 1.03.394.311.978.467 1.751.467l.403-.012c.268-.008.564-.07.887-.19.324-.118.618-.32.882-.609.264-.288.396-.712.396-1.272h-1.313l-.136.42c-.091.28-.448.42-1.071.42l-.663-.136c-.442-.09-.663-.499-.663-1.225h3.894l.017-.532a3.532 3.532 0 00-.183-1.172c-.134-.426-.385-.814-.751-1.165C14.81 8.176 14.245 8 13.479 8zm1.184 2.355h-2.474l.225-.604c.15-.402.517-.603 1.1-.603.577 0 .912.201 1.007.603l.142.604zm.307-3.893h-3.1v.97h3.1v-.97z" fill="#4A4A4A"/></g></svg>
